X:17669
T:Torryburn Lasses. JMT066
M:C
L:1/8
Q:210
S:J.Moore,Tyneside,1841.(46b)
R:Reel
O:England
A:Northumbria
N:Titled "A Reel" in M
Z:C.G.P
K:G
D|G2BG G-ddB|c2ec egg2|G2BG B-ddg|e-dcBA2G:|
|:d|g-abg a-gfd|e-fge d-cBG|g-abg a-gfd|e-gfag2ga|
b-agf g-fed|e-fge d-BGB|c-Bcd e-fge|d-BgBA2G:|]
